X: 2
T:The Night Piece, or The Shaking of the Sheets
M:6/4
L:1/4
S:Playford
K:D
f2d a2 f|d2 f d2 f|fg2 f>esc2d f2a||bga gaf| efd e2f|ddcdef|fe>d d3||
% Output from ABC2Win  Version 2.1 f on 09/09/2002
